!!!COM: Gioseffo Zarlino
!!!OPR: Le istitutioni harmoniche
!!!OTL: Third way: canon at the octave above after a minim, CF above the guida.
!!!PPR: Francesco Senese
!!!PDT: 1573
!!!PPP: Venice
!!!ONB: Reprint ed., New York: Broude Bros., 1965.  ch 63, p. 307.
!!!ONB: Transcribed from Gioseffo Zarlino, Le Istitutioni Harmoniche, 1573,
**kern	**kern	**kern
*k[]	*k[]	*k[]
*M4/4	*M4/4	*M4/4
*guida	*CF	*conseq
=1	=1	=1
1C	1G	2r
.	.	[2c
=2	=2	=2
2F	1A	2c]
2D	.	2f
=3	=3	=3
2G	{1G	2d
2C	.	2g
=4	=4	=4
2F	1F}	2c
4E	.	2f
4D	.	.
=5	=5	=5
2G	1G	4e
.	.	4d
2C	.	2g
=6	=6	=6
2F	{1A	2c
2D	.	2f
=7	=7	=7
2G	1G}	2d
4F	.	2g
4E	.	.
=8	=8	=8
4A	1c	4f
4G	.	4e
4F	.	4a
4E	.	4g
=9	=9	=9
2D	1d	4f
.	.	4e
4G	.	2d
4F	.	.
=10	=10	=10
4E	1c	4g
4D	.	4f
2C	.	4e
.	.	4d
=11	=11	=11
4AA	1c	2c
4BB	.	.
4C	.	4A
4D	.	4B
=12	=12	=12
2E	1G	4c
.	.	4d
2C	.	2e
=13	=13	=13
2AA	1A	2c
[2A	.	2A
=14	=14	=14
4A]	1c	2.a
4G	.	.
4F	.	.
4E	.	4g
=15	=15	=15
2D	{1d	4f
.	.	4e
2G	.	2d
=16	=16	=16
2E	1c}	2g
2A	.	2e
=17	=17	=17
4r	1d	2a
4D	.	.
2G	.	4r
.	.	4d
=18	=18	=18
2E	1e	2g
2A	.	2e
=19	=19	=19
2D	1d	2a
2G	.	2d
=20	=20	=20
2C	1c	2g
2F	.	2c
=21	=21	=21
2D	{1d	2f
[2G	.	2d
=22	=22	=22
4G]	1e}	2.g
4F	.	.
[2E	.	.
.	.	4f
=23	=23	=23
4E]	{1c	2.e
4D	.	.
4E	.	.
4F	.	4d
=24	=24	=24
2G	1B}	4e
.	.	4f
2E	.	2g
=25	=25	=25
4AA	{1A	2e
4BB	.	.
4C	.	4A
4D	.	4B
=26	=26	=26
1E	1G}	4c
.	.	4d
.	.	[2e
=27	=27	=27
2AA	{1c	2e]
2F	.	2A
=28	=28	=28
2D	1d}	2f
4G	.	2d
4F	.	.
=29	=29	=29
4E	1G	4g
4D	.	4f
4C	.	4e
4BB	.	4d
=30	=30	=30
2AA	1A	4c
.	.	4B
2r	.	2A
=31	=31	=31
2.E	1c	2r
.	.	[2e
4F	.	.
=32	=32	=32
2G	{1B	4e]
.	.	4f
2E	.	2g
=33	=33	=33
2.A	1c}	2e
.	.	[2a
4G	.	.
=34	=34	=34
2F	{1A	4a]
.	.	4g
2D	.	2f
=35	=35	=35
2G	1G}	2d
2C	.	2g
=36	=36	=36
2AA	1F	2c
[2F	.	2A
=37	=37	=37
4F]	{1A	2.f
4E	.	.
4D	.	.
4C	.	4e
=38	=38	=38
4BB-	1B-}	4d
4C	.	4c
4D	.	4B-
4E	.	4c
=39	=39	=39
2F	1A	4d
.	.	4e
2D	.	2f
=40	=40	=40
4r	{1G	2d
4G	.	.
2C	.	4r
.	.	4g
=41	=41	=41
2F	1F}	2c
2D	.	2f
=42	=42	=42
4G	1G	2d
4F	.	.
4E	.	4g
4D	.	4f
=43	=43	=43
4C	[1G	4e
4BB	.	4d
[2E	.	4c
.	.	4B
=44	=44	=44
2E]	1G_	1e
2C	.	.
=45	=45	=45
1C	1G]	1c
==	==	==
*-	*-	*-
!!!CDT: 1517/3/22-1590/2/14
!!!CNT: Italia
!!!ODT: <1573//
!!!YEP: David Huron and Denis Collins
!!!YEN: Canada
!!!AIN: vox; ?
!!!AST: polyphony
!!!RDT: 1995 July 3
!!!YED: 1995 August 31
!!!AFR: cantus firmus canon
!!!AMT: simple quadruple
!!!EEV: 1.0
